src/lib/packages/icons/src/assets/filled/bookmarks.svg

<svg width="24" height="24" viewBox="0 0 24 24" fill="none" xmlns="http://www.w3.org/2000/svg">
<path d="M20 4.56995V18L19.9929 17.986V18L17.644 16.656C17.55 16.603 17.4929 16.503 17.4929 16.396C17.4929 16.396 17.4929 8.50495 17.4929 8.47095C17.4519 5.98395 15.9471 4.501 13.4331 4.5H8.21997C8.04597 4.5 7.99403 4.34805 8.00903 4.17505C8.13403 2.73105 8.98799 2 10.563 2H17.4231H17.4299C19.1399 2 20 2.85995 20 4.56995ZM16 8.57104V22L10 18.572L4 22V8.57104C4 6.85705 4.85704 6 6.57104 6H13.428C15.143 6 16 6.85705 16 8.57104ZM13.25 11C13.25 10.586 12.914 10.25 12.5 10.25H7.5C7.086 10.25 6.75 10.586 6.75 11C6.75 11.414 7.086 11.75 7.5 11.75H12.5C12.914 11.75 13.25 11.414 13.25 11Z" fill="currentColor"/>
</svg>

<svg xmlns="http://www.w3.org/2000/svg" width="24" height="24" fill="none"><path fill="currentColor" d="M20 4.57V18l-.007-.014V18l-2.349-1.344a.298.298 0 0 1-.151-.26V8.471c-.041-2.487-1.546-3.97-4.06-3.971H8.22c-.174 0-.226-.152-.211-.325C8.134 2.731 8.988 2 10.563 2h6.867C19.14 2 20 2.86 20 4.57Zm-4 4V22l-6-3.428L4 22V8.571C4 6.857 4.857 6 6.571 6h6.857C15.143 6 16 6.857 16 8.571ZM13.25 11a.75.75 0 0 0-.75-.75h-5a.75.75 0 0 0 0 1.5h5a.75.75 0 0 0 .75-.75Z"/></svg>
